assets/home/icon_mail.svg

<svg class="icon" height="200" version="1.1" viewBox="0 0 1024 1024" width="200"
  xmlns="http://www.w3.org/2000/svg">
  <path
    d="M838.954667 234.666667H170.666667c-3.626667 0-7.168 0.448-10.56 1.322666l323.690666 323.669334a21.333333 21.333333 0 0 0 30.165334 0L838.954667 234.666667z m46.144 14.186666l-260.693334 260.693334 262.933334 262.912c5.44-7.168 8.661333-16.106667 8.661333-25.792V277.333333c0-10.944-4.117333-20.906667-10.88-28.48zM843.861333 789.333333l-249.6-249.621333-50.133333 50.133333a64 64 0 0 1-90.517333 0l-50.112-50.133333L156.373333 786.88c4.48 1.578667 9.28 2.453333 14.314667 2.453333h673.194667zM128.661333 754.218667L373.333333 509.525333 129.578667 265.813333A42.709333 42.709333 0 0 0 128 277.333333v469.333334c0 2.56 0.213333 5.098667 0.661333 7.552zM170.666667 192h682.666666a85.333333 85.333333 0 0 1 85.333334 85.333333v469.333334a85.333333 85.333333 0 0 1-85.333334 85.333333H170.666667a85.333333 85.333333 0 0 1-85.333334-85.333333V277.333333a85.333333 85.333333 0 0 1 85.333334-85.333333z"
    fill="#333333"></path>
</svg>

<svg class="icon" height="200" viewBox="0 0 1024 1024" width="200" xmlns="http://www.w3.org/2000/svg"><path d="M838.955 234.667H170.667c-3.627 0-7.168.448-10.56 1.322l323.69 323.67a21.333 21.333 0 0 0 30.166 0l324.992-324.992zm46.144 14.186L624.405 509.547 887.34 772.459A42.517 42.517 0 0 0 896 746.667V277.333c0-10.944-4.117-20.906-10.88-28.48zm-41.238 540.48-249.6-249.621-50.133 50.133a64 64 0 0 1-90.517 0l-50.112-50.133L156.373 786.88a42.92 42.92 0 0 0 14.315 2.453h673.195zm-715.2-35.114 244.672-244.694L129.58 265.813a42.71 42.71 0 0 0-1.579 11.52v469.334c0 2.56.213 5.098.661 7.552zM170.667 192h682.666a85.333 85.333 0 0 1 85.334 85.333v469.334A85.333 85.333 0 0 1 853.333 832H170.667a85.333 85.333 0 0 1-85.334-85.333V277.333A85.333 85.333 0 0 1 170.667 192z" fill="#333"/></svg>
